src/standard/people/cio-itdm.svg

<svg xmlns="http://www.w3.org/2000/svg" viewBox="0 0 36 36">
  <path d="M14 18.62h8a.62.62 0 0 0 0-1.24h-.38V13a.62.62 0 0 0-1.24 0v4.38h-1.76v-2.5a.62.62 0 1 0-1.24 0v2.5h-1.76v-1.26a.62.62 0 0 0-1.24 0v1.26H14a.62.62 0 0 0 0 1.24Z"/>
  <path d="M31 6.38H5a.61.61 0 0 0-.62.62v17a.61.61 0 0 0 .62.62h10.38v3.76H9a.62.62 0 1 0 0 1.24h18a.62.62 0 0 0 0-1.24h-6.38v-3.76H31a.61.61 0 0 0 .62-.62V7a.61.61 0 0 0-.62-.62Zm-11.62 22h-2.76v-3.76h2.76Zm11-5H5.62V7.62h24.76Z"/>
</svg>

<svg id="eb5be82c-7b3c-499d-88e5-9fc5b91e4f2d" data-name="Icon" xmlns="http://www.w3.org/2000/svg" viewBox="0 0 36 36">
  <g>
    <path d="M14,18.62h8a.62.62,0,0,0,0-1.24h-.38V13a.62.62,0,0,0-1.24,0v4.38H18.62v-2.5a.62.62,0,1,0-1.24,0v2.5H15.62V16.12a.62.62,0,0,0-1.24,0v1.26H14a.62.62,0,0,0,0,1.24Z"/>
    <path d="M31,6.38H5A.61.61,0,0,0,4.38,7V24a.61.61,0,0,0,.62.62H15.38v3.76H9a.62.62,0,1,0,0,1.24H27a.62.62,0,0,0,0-1.24H20.62V24.62H31a.61.61,0,0,0,.62-.62V7A.61.61,0,0,0,31,6.38Zm-11.62,22H16.62V24.62h2.76Zm11-5H5.62V7.62H30.38Z"/>
  </g>
</svg>
